usr/share/icons/biglinux-icons-material/scalable/mimetypes/application-x-addon.svg

<svg width="24" height="24" viewBox="0 0 24 24" fill="none" xmlns="http://www.w3.org/2000/svg">
<rect x="1" y="1" width="22" height="22" rx="6.6" fill="url(#paint0_radial_21_108)"/>
<path d="M10.5962 3.00408C9.63508 2.94062 8.55365 3.62327 8.59203 4.67503C8.47837 5.30101 9.08202 5.76811 9.05574 6.33304C8.70016 6.48891 8.4298 6.48891 8.17944 6.48891H4.01371C4.01371 7.68976 4.01371 9.41137 4.01371 10.6121C4.33895 11.3203 5.00299 10.309 5.52753 10.4183C6.52982 10.2085 7.43197 11.0871 7.47997 12.058C7.61323 12.9843 7.25476 14.1883 6.2051 14.3747C5.63893 14.4703 5.02958 14.3654 4.56463 14.0195C4.00476 13.6816 3.96912 14.4231 4.01369 14.7863V18.9863H8.80449C9.51268 18.6611 8.50132 17.997 8.61071 17.4725C8.40103 16.4704 9.2794 15.5675 10.2504 15.5199C11.1767 15.3869 12.3807 15.7452 12.5671 16.7949C12.6626 17.3611 12.5578 17.9704 12.2119 18.4354C11.8739 18.9952 12.6154 19.0309 12.9787 18.9863L16.5111 18.9863V14.2174C16.8441 13.503 17.5076 14.5481 18.0491 14.3924C18.9184 14.5634 19.7994 13.9421 19.9306 13.067C20.1524 12.0987 19.8773 10.8141 18.8172 10.4744C18.1456 10.2457 17.4765 10.5378 16.9096 10.883C16.3877 10.9566 16.5274 10.325 16.5111 9.99947C16.5111 9.00289 16.5111 7.48559 16.5111 6.48893L12.8661 6.48893H12.4098C11.6954 6.15592 12.7405 5.49241 12.5849 4.95092C12.7559 4.08156 12.1346 3.20055 11.2595 3.0694C11.0418 3.02242 10.8186 3.00414 10.5962 3.00408Z" fill="#46A926"/>
<defs>
<radialGradient id="paint0_radial_21_108" cx="0" cy="0" r="1" gradientUnits="userSpaceOnUse" gradientTransform="translate(17.5 1) rotate(116.565) scale(24.5967)">
<stop stop-color="#F4F4F4"/>
<stop offset="1" stop-color="#BBBBBB"/>
</radialGradient>
</defs>
</svg>

<svg xmlns="http://www.w3.org/2000/svg" width="24" height="24" fill="none"><rect width="22" height="22" x="1" y="1" fill="url(#a)" rx="6.6"/><path fill="#46A926" d="M10.596 3.004c-.96-.063-2.042.62-2.004 1.671-.114.626.49 1.093.464 1.658-.356.156-.626.156-.877.156H4.014v4.123c.325.708.989-.303 1.514-.194 1.002-.21 1.904.67 1.952 1.64.133.926-.225 2.13-1.275 2.317-.566.095-1.175-.01-1.64-.355-.56-.338-.596.403-.551.766v4.2h4.79c.709-.325-.303-.989-.193-1.514-.21-1.002.668-1.905 1.64-1.952.926-.133 2.13.225 2.316 1.275.096.566-.01 1.175-.355 1.64-.338.56.403.596.767.551h3.532v-4.769c.333-.714.997.331 1.538.175.87.171 1.75-.45 1.882-1.325.221-.968-.054-2.253-1.114-2.593-.671-.228-1.34.064-1.907.409-.522.074-.383-.558-.399-.884V6.49H12.41c-.715-.333.33-.997.175-1.538.17-.87-.45-1.75-1.326-1.882a3.15 3.15 0 0 0-.663-.065Z"/><defs><radialGradient id="a" cx="0" cy="0" r="1" gradientTransform="rotate(116.565 8.441 5.908) scale(24.5967)" gradientUnits="userSpaceOnUse"><stop stop-color="#F4F4F4"/><stop offset="1" stop-color="#BBB"/></radialGradient></defs></svg>
